scripts/fixtures/lut-tone-1d.cube
TITLE "tone 1d"
LUT_1D_SIZE 3
DOMAIN_MIN 0.0 0.0 0.0
DOMAIN_MAX 1.0 1.0 1.0
0.000000 0.000000 0.000000
0.200000 0.600000 0.900000
1.000000 1.000000 1.000000
